X:1
T:Run down the Town in Haste
T:Run down the Town in Haste
T:William Marshall
C:William Marshall
%%score { 1 2 }
L:1/8
M:4/4
K:Bb
V:1 treble 
V:2 bass 
V:1
 d | B2 (dB) fBdB | GFGB (TcBc)d | B/B/B (dB) fBdB | egfe dB-B :: E | (D/E/F) (B,F) BFdB | %7
 GFGB (TcBc)d | Bfdf egdf | (TcBc)d B/B/B B2 | (D/E/F) (B,F) BFdB | GFGB (TcBc)d | %12
 f/f/f (Tgf) bfdB | egfe dB-B |] %14
V:2
 z | B2 B2 B2 B2 | e2 e2 f2 f2 | b2 b2 b2 b2 | e2 f2 B2 B :: z | B2 B2 B2 B2 | e2 e2 f2 f2 | %8
 b2 b2 e2 f2 | f2 F2 B2 B2 | B2 B2 B2 B2 | e2 e2 f2 f2 | b2 B2 B2 B2 | e2 f2 B2 B |] %14

